icons/time/alarm-clock-24.svg

<svg width="24" height="24" viewBox="0 0 24 24" fill="none" xmlns="http://www.w3.org/2000/svg">
<path d="M3.12132 3.12132C2.19291 4.04974 2.00022 5.43527 2.54324 6.55343C2.78451 7.05023 3.4379 7.04738 3.82843 6.65686L6.65685 3.82843C7.04738 3.43791 7.05023 2.78452 6.55343 2.54325C5.43527 2.00022 4.04973 2.19291 3.12132 3.12132Z" fill="black"/>
<path d="M12.5 8C12.5 7.80109 12.421 7.61032 12.2803 7.46967C12.1397 7.32902 11.9489 7.25 11.75 7.25C11.5511 7.25 11.3603 7.32902 11.2197 7.46967C11.079 7.61032 11 7.80109 11 8V13.5C11 13.77 11.144 14.018 11.378 14.151L14.878 16.151C15.0503 16.2441 15.2522 16.2661 15.4405 16.2124C15.6288 16.1586 15.7886 16.0333 15.8858 15.8633C15.9829 15.6933 16.0097 15.492 15.9604 15.3024C15.9112 15.1129 15.7897 14.9502 15.622 14.849L12.5 13.065V8Z" fill="black"/>
<path fill-rule="evenodd" clip-rule="evenodd" d="M21 13C21 14.9593 20.3739 16.7724 19.3108 18.2502L21.7803 20.7197C22.0732 21.0126 22.0732 21.4874 21.7803 21.7803C21.4874 22.0732 21.0126 22.0732 20.7197 21.7803L18.3336 19.3942C16.7073 21.0051 14.4699 22 12 22C9.53015 22 7.29266 21.0051 5.66644 19.3942L3.28033 21.7803C2.98744 22.0732 2.51256 22.0732 2.21967 21.7803C1.92678 21.4874 1.92678 21.0126 2.21967 20.7197L4.68918 18.2502C3.62612 16.7724 3 14.9593 3 13C3 8.02944 7.02944 4 12 4C16.9706 4 21 8.02944 21 13ZM19.5 13C19.5 17.1421 16.1421 20.5 12 20.5C7.85786 20.5 4.5 17.1421 4.5 13C4.5 8.85786 7.85786 5.5 12 5.5C16.1421 5.5 19.5 8.85786 19.5 13Z" fill="black"/>
<path d="M21.4568 6.56079C21.9998 5.44262 21.8071 4.05709 20.8787 3.12868C19.9503 2.20027 18.5647 2.00757 17.4466 2.5506C16.9498 2.79187 16.9526 3.44526 17.3431 3.83579L20.1716 6.66421C20.5621 7.05474 21.2155 7.05759 21.4568 6.56079Z" fill="black"/>
</svg>

<svg xmlns="http://www.w3.org/2000/svg" width="24" height="24"><path d="M3.121 3.121a3.001 3.001 0 00-.578 3.432c.242.497.895.494 1.285.104l2.829-2.829c.39-.39.393-1.043-.104-1.285a3.001 3.001 0 00-3.432.578zM12.5 8A.75.75 0 1011 8v5.5c0 .27.144.518.378.651l3.5 2a.75.75 0 00.744-1.302L12.5 13.065V8z"/><path fill-rule="evenodd" d="M21 13a8.96 8.96 0 01-1.69 5.25l2.47 2.47a.75.75 0 11-1.06 1.06l-2.386-2.386A8.971 8.971 0 0112 22a8.971 8.971 0 01-6.334-2.606L3.28 21.78a.75.75 0 01-1.06-1.06l2.47-2.47A9 9 0 1121 13zm-1.5 0a7.5 7.5 0 11-15 0 7.5 7.5 0 0115 0z"/><path d="M21.457 6.56a3.001 3.001 0 00-4.01-4.01c-.497.242-.494.895-.104 1.286l2.829 2.828c.39.39 1.043.394 1.285-.103z"/></svg>
